X:1
T:Title
%%score { 1 | 2 }
L:1/8
Q:1/4=100
M:6/8
K:Bb
V:1 treble nm="Grand Piano"
V:2 bass 
V:1
 [DF]2 [Fd] [Fd][=E_d][F=d] | [DB]3 [DF]3 | E2 G F2 [CE] | [B,D]6 | [DF]2 [Fd] [Fd][=E_d][F=d] | %5
w: S.~J.~Robson * * * *|||||
 [DB]3 [DF]3 | [CA]2 [Fc] [=EB]2 [EG] | F6 | [Ae]3 [Ae]3 | [Ae][Bd][Ac] [GB][FA][EG] | %10
w: |||||
 [DF]2 [DB] [B,D]2 [CE] | [DF]6 | G2 G G2 [FA] | [GB]3 [^Fc]3 | d2 c B2 A | [DB]6 |] %16
w: ||||||
V:2
 [B,,B,]2 [B,,B,] [B,,B,]2 [B,,B,] | [B,,F,]3 [B,,B,]3 | [F,A,C]2 [F,A,E] [F,D]2 [F,,F,] | %3
 [B,,F,]6 | [B,,B,]2 [B,,B,] [B,,B,]2 [B,,B,] | [B,,F,]3 [B,,B,]3 | [C,F,]2 [C,A,] [C,G,]2 [C,B,] | %7
 [F,A,]6 | [F,C]3 [F,C]3 | [F,C]2 [F,C] [F,C]2 [F,C] | [B,,B,]2 [B,,F,] [B,,F,]2 [B,,F,] | %11
 [B,,B,]6 | [E,B,E]2 [E,B,E] [E,B,E]2 [E,B,] | [E,E]3 [E,B,]3 | [F,B,F]2 [F,EF] [F,DF]2 [F,CE] | %15
 [B,,B,]6 |] %16

